docs/static/img/social_media/linkedin.svg

<svg width="16" height="16" viewBox="0 0 16 16" fill="none" xmlns="http://www.w3.org/2000/svg">
<path d="M3.63213 16V5.20483H0.202355V16H3.63213ZM1.91769 3.73005C3.11371 3.73005 3.85818 2.9011 3.85818 1.8652C3.83589 0.805936 3.11376 0 1.94038 0C0.767194 0 0 0.805952 0 1.8652C0 2.90115 0.744284 3.73005 1.8953 3.73005H1.91758H1.91769ZM5.5305 16H8.96028V9.97146C8.96028 9.64882 8.98256 9.32651 9.07314 9.09587C9.32108 8.45125 9.88542 7.7836 10.8329 7.7836C12.074 7.7836 12.5705 8.77355 12.5705 10.2248V15.9999H16V9.81008C16 6.49422 14.308 4.95139 12.0514 4.95139C10.2011 4.95139 9.38877 6.03334 8.93746 6.77026H8.96036V5.20461H5.53058C5.57559 6.21757 5.53058 15.9998 5.53058 15.9998L5.5305 16Z" fill="#62A7BD"/>
</svg>

<svg xmlns="http://www.w3.org/2000/svg" width="16" height="16" fill="none" xmlns:v="https://vecta.io/nano"><path d="M3.632 16V5.205H.202V16h3.43zM1.918 3.73c1.196 0 1.94-.829 1.94-1.865C3.836.806 3.114 0 1.94 0S0 .806 0 1.865C0 2.901.744 3.73 1.895 3.73h.022 0zM5.531 16h3.43V9.971c0-.323.022-.645.113-.876.248-.645.812-1.312 1.76-1.312 1.241 0 1.738.99 1.738 2.441V16H16V9.81c0-3.316-1.692-4.859-3.949-4.859-1.85 0-2.663 1.082-3.114 1.819h.023V5.205h-3.43c.045 1.013 0 10.795 0 10.795h0z" fill="#62a7bd"/></svg>
